X:316
T: DA DROBEN IN JENEM THALE, DA TREIBET DAS WASSER DAS RAD
N: Z0313
O: Europa, Mitteleuropa, Deutschland
R: Lyrisches Lied, Romanze, verlassene Liebe
M: 3/8
L: 1/16
K: F
C2 | F2E2F2 | G2F2G2 | A4G2 | F4
FG | A3Bc2 | c2B2A2 | G4
B2 | A2B2c2 | c2B2A2 | B3cd2 | c4
B2 | A2G2F2 | G2F2G2 | F4

